Origami/24x24/apps/spacemacs.svg

<svg width="24" height="24" version="1" xmlns="http://www.w3.org/2000/svg">
 <rect transform="matrix(0,-1,-1,0,0,0)" x="-22" y="-22" width="20" height="19.998" rx="10" ry="9.999" style="fill-opacity:.99199997;fill:#8366b2"/>
 <path d="m12 1.9998061c-5.5395 0-9.999 4.46-9.999 9.9999999 0 0.08386-2e-3 0.166645 0 0.25 0.1321-5.4229999 4.5435-9.7499999 9.999-9.7499999s9.867 4.3268 9.999 9.7499999c2e-3 -0.08335 0-0.16614 0-0.25 0-5.5399999-4.4595-9.9999999-9.999-9.9999999z" style="fill:#ffffff;opacity:.1"/>
 <path d="m2.00585 12.249806c-0.00205 0.0835-0.00585 0.166-0.00585 0.25 0 5.54 4.46 10 10 10s10-4.46 10-10c0-0.084-4e-3 -0.1665-6e-3 -0.25-0.132 5.423-4.538 9.75-9.994 9.75s-9.862-4.327-9.994-9.75z" style="opacity:.2"/>
 <path d="m4.4082031 2.5019531c-0.6029781-0.0119261-1.0776205 0.1571054-1.4941406 0.5253907-1.0340545 0.9190169-0.9090658 2.9962377-0.1425781 5.6289062 0.0538675-0.1298264 0.1147266-0.2558488 0.1738281-0.3828125-0.5136739-2.0134294-0.7472893-2.834912 0.1152344-3.5917969 0.7166288-0.6260469 1.8527108-0.6782544 3.2714843-0.1484375 2.5215225 0.9415976 5.3375598 2.4821679 8.2050778 6.1523439 0.270631 0.346383 0.460642 0.580943 0.691407 0.871094-0.734458 0.01329-1.848257-0.06033-2.808594-0.234375-3.6127794-0.654684-7.0160495-1.9272826-8.6113282-3.6054691-0.1428493-0.150273-0.2592106-0.26247-0.2597657-0.25-6.55e-4 0.0128 0.3211547 0.6713841 0.7148438 1.4628906l0.5917969 1.3847655 0.8808593 0.427735c0.957092 0.474092 2.17643 1.029464 4.8242189 2.193359 2.900756 1.27507 4.198362 1.886943 5.515625 2.603515 1.055668 0.574273 2.128581 1.276559 2.669922 1.744141 0.184454 0.159974 0.22794 0.199952 0.24414 0.216797 6e-4 -0.01205 0.01316-0.06958 0.0078-0.117188-0.03507-0.259617-0.236181-1.286238-0.423828-2.236328-0.0406-0.215207-0.08468-0.429661-0.126953-0.644531-0.01943-0.09792-0.0452-0.233162-0.0625-0.320312-0.02751-0.138612-0.05962-0.269701-0.08789-0.40625-0.397793-1.926157-0.860469-3.8362634-1.449207-5.7187504-0.271493-0.857407-0.443118-1.2744306-0.722656-1.7832031-0.10346-0.1883635-1.246747-0.960611-1.443359-1.0644531-0.0032-0.00164-0.01535-0.015098-0.01758-0.015625l-2e-3 0.00391c-0.0072-0.00359-0.05728-0.040189-0.06055-0.041016v0.00195c-0.0026-8.55e-4 -0.0053-0.00173-0.0059-0.00195-0.01159 0.01069 0.07929 0.2078064 0.175781 0.3789062 0.988369 1.7529112 1.636808 4.3847179 1.306641 5.8574214-0.0055 0.02288-0.0092 0.04473-0.01758 0.06836-4.21e-4 0.0012-0.0017 5e-3 -2e-3 0.0059-8e-4 -2.5e-4 -0.0033 2e-4 -0.0039 0-0.0077 0.0029-0.02925 5e-3 -0.03906 0.0078-0.269613-0.34882-0.506354-0.647472-0.835805-1.082063-2.023437-2.6195889-5.7172236-6.4664349-9.5332036-7.6777342-0.467788-0.1338434-0.8764945-0.205735-1.2382813-0.2128907z" style="opacity:.2"/>
 <path d="m4.4082031 2.0019531c-0.6029781-0.0119261-1.0776205 0.1571054-1.4941406 0.5253907-1.0340545 0.9190169-0.9090658 2.9962377-0.1425781 5.6289062 0.0538675-0.1298264 0.1147266-0.2558488 0.1738281-0.3828125-0.5136739-2.0134294-0.7472893-2.834912 0.1152344-3.5917969 0.7166288-0.6260469 1.8527108-0.6782544 3.2714843-0.1484375 2.5215225 0.9415976 5.3375598 2.4821679 8.2050778 6.1523439 0.270631 0.346383 0.460642 0.580943 0.691407 0.871094-0.734458 0.01329-1.848257-0.060326-2.808594-0.234375-3.6127794-0.654684-7.0160495-1.9272826-8.6113282-3.6054691-0.1428493-0.150273-0.2592106-0.26247-0.2597657-0.25-6.55e-4 0.0128 0.3211547 0.6713841 0.7148438 1.4628906l0.5917969 1.3847656 0.8808593 0.4277349c0.957092 0.474092 2.17643 1.029464 4.8242189 2.193359 2.900756 1.27507 4.198362 1.886943 5.515625 2.603515 1.055668 0.574273 2.128581 1.276559 2.669922 1.744141 0.184454 0.159974 0.22794 0.199952 0.24414 0.216797 6e-4 -0.01205 0.013163-0.069584 0.007813-0.117188-0.03507-0.259617-0.236181-1.286238-0.423828-2.236328-0.0406-0.215207-0.08468-0.429661-0.126953-0.644531-0.01943-0.09792-0.0452-0.233162-0.0625-0.320312-0.02751-0.138612-0.059621-0.269701-0.087891-0.40625-0.397805-1.926157-0.860481-3.8362634-1.449219-5.7187504-0.271493-0.857407-0.443118-1.2744306-0.722656-1.7832031-0.10346-0.1883635-1.246747-0.960611-1.443359-1.0644531-0.0032-0.00164-0.015349-0.015098-0.017579-0.015625l-0.001953 0.0039062c-0.0072-0.00359-0.057276-0.0401886-0.060547-0.0410156v0.0019531c-0.002599-8.55e-4 -0.005259-0.0017331-0.005859-0.0019531-0.01159 0.01069 0.079286 0.2078064 0.175781 0.3789062 0.988369 1.7529112 1.636808 4.3847179 1.306641 5.8574218-0.0055 0.02288-0.009238 0.04473-0.017578 0.06836-4.21e-4 0.0012-0.001653 0.004959-0.001953 0.005859-8e-4 -2.5e-4 -0.003306 2e-4 -0.003906 0-0.0077 0.0029-0.029253 0.005012-0.039063 0.007812-0.269745-0.348788-0.506486-0.64744-0.835937-1.0820309-2.023437-2.619589-5.7172236-6.466435-9.5332036-7.6777343-0.467788-0.1338434-0.8764945-0.205735-1.2382813-0.2128907z" style="fill:#ffffff"/>
</svg>

<svg xmlns="http://www.w3.org/2000/svg" width="24" height="24" version="1">
 <rect width="20" height="19.998" x="-22" y="-22" rx="10" ry="9.999" transform="matrix(0,-1,-1,0,0,0)" style="fill:#8366b2;fill-opacity:0.99199997"/>
 <path d="m 12,1.9998061 c -5.5395,0 -9.999,4.46 -9.999,9.9999999 0,0.08386 -0.002,0.166645 0,0.25 C 2.1331,6.8268061 6.5445,2.4998061 12,2.4998061 c 5.4555,0 9.867,4.3268 9.999,9.7499999 0.002,-0.08335 0,-0.16614 0,-0.25 0,-5.5399999 -4.4595,-9.9999999 -9.999,-9.9999999 z" style="opacity:0.1;fill:#ffffff"/>
 <path d="M 2.00585,12.249806 C 2.0038,12.333306 2,12.415806 2,12.499806 c 0,5.54 4.46,10 10,10 5.54,0 10,-4.46 10,-10 0,-0.084 -0.004,-0.1665 -0.006,-0.25 -0.132,5.423 -4.538,9.75 -9.994,9.75 -5.456,0 -9.862,-4.327 -9.994,-9.75 z" style="opacity:0.2"/>
 <path style="opacity:0.2" d="M 4.4082031,2.5019531 C 3.805225,2.490027 3.3305826,2.6590585 2.9140625,3.0273438 1.880008,3.9463607 2.0049967,6.0235815 2.7714844,8.65625 2.8253519,8.5264236 2.886211,8.4004012 2.9453125,8.2734375 2.4316386,6.2600081 2.1980232,5.4385255 3.0605469,4.6816406 3.7771757,4.0555937 4.9132577,4.0033862 6.3320312,4.5332031 8.8535537,5.4748007 11.669591,7.015371 14.537109,10.685547 c 0.270631,0.346383 0.460642,0.580943 0.691407,0.871094 -0.734458,0.01329 -1.848257,-0.06033 -2.808594,-0.234375 C 8.8071426,10.667582 5.4038725,9.3949834 3.8085938,7.7167969 c -0.1428493,-0.150273 -0.2592106,-0.26247 -0.2597657,-0.25 -6.55e-4,0.0128 0.3211547,0.6713841 0.7148438,1.4628906 l 0.5917969,1.3847655 0.8808593,0.427735 c 0.957092,0.474092 2.17643,1.029464 4.8242189,2.193359 2.900756,1.27507 4.198362,1.886943 5.515625,2.603515 1.055668,0.574273 2.128581,1.276559 2.669922,1.744141 0.184454,0.159974 0.22794,0.199952 0.24414,0.216797 6e-4,-0.01205 0.01316,-0.06958 0.0078,-0.117188 -0.03507,-0.259617 -0.236181,-1.286238 -0.423828,-2.236328 -0.0406,-0.215207 -0.08468,-0.429661 -0.126953,-0.644531 -0.01943,-0.09792 -0.0452,-0.233162 -0.0625,-0.320312 -0.02751,-0.138612 -0.05962,-0.269701 -0.08789,-0.40625 C 17.89907,11.849234 17.436394,9.9391276 16.847656,8.0566406 16.576163,7.1992336 16.404538,6.78221 16.125,6.2734375 16.02154,6.085074 14.878253,5.3128265 14.681641,5.2089844 c -0.0032,-0.00164 -0.01535,-0.015098 -0.01758,-0.015625 l -0.002,0.00391 c -0.0072,-0.00359 -0.05728,-0.040189 -0.06055,-0.041016 l 0,0.00195 c -0.0026,-8.55e-4 -0.0053,-0.00173 -0.0059,-0.00195 -0.01159,0.01069 0.07929,0.2078064 0.175781,0.3789062 0.988369,1.7529112 1.636808,4.3847179 1.306641,5.8574214 -0.0055,0.02288 -0.0092,0.04473 -0.01758,0.06836 -4.21e-4,0.0012 -0.0017,0.005 -0.002,0.0059 -8e-4,-2.5e-4 -0.0033,2e-4 -0.0039,0 -0.0077,0.0029 -0.02925,0.005 -0.03906,0.0078 C 15.74588,11.125821 15.509139,10.827169 15.179688,10.392578 13.156251,7.7729891 9.4624644,3.9261431 5.6464844,2.7148438 5.1786964,2.5810004 4.7699899,2.5091088 4.4082031,2.5019531 Z"/>
 <path d="M 4.4082031 2.0019531 C 3.805225 1.990027 3.3305826 2.1590585 2.9140625 2.5273438 C 1.880008 3.4463607 2.0049967 5.5235815 2.7714844 8.15625 C 2.8253519 8.0264236 2.886211 7.9004012 2.9453125 7.7734375 C 2.4316386 5.7600081 2.1980232 4.9385255 3.0605469 4.1816406 C 3.7771757 3.5555937 4.9132577 3.5033862 6.3320312 4.0332031 C 8.8535537 4.9748007 11.669591 6.515371 14.537109 10.185547 C 14.80774 10.53193 14.997751 10.76649 15.228516 11.056641 C 14.494058 11.069931 13.380259 10.996315 12.419922 10.822266 C 8.8071426 10.167582 5.4038725 8.8949834 3.8085938 7.2167969 C 3.6657445 7.0665239 3.5493832 6.9543269 3.5488281 6.9667969 C 3.5481731 6.9795969 3.8699828 7.638181 4.2636719 8.4296875 L 4.8554688 9.8144531 L 5.7363281 10.242188 C 6.6934201 10.71628 7.9127581 11.271652 10.560547 12.435547 C 13.461303 13.710617 14.758909 14.32249 16.076172 15.039062 C 17.13184 15.613335 18.204753 16.315621 18.746094 16.783203 C 18.930548 16.943177 18.974034 16.983155 18.990234 17 C 18.990834 16.98795 19.003397 16.930416 18.998047 16.882812 C 18.962977 16.623195 18.761866 15.596574 18.574219 14.646484 C 18.533619 14.431277 18.489539 14.216823 18.447266 14.001953 C 18.427836 13.904033 18.402066 13.768791 18.384766 13.681641 C 18.357256 13.543029 18.325145 13.41194 18.296875 13.275391 C 17.89907 11.349234 17.436394 9.4391276 16.847656 7.5566406 C 16.576163 6.6992336 16.404538 6.28221 16.125 5.7734375 C 16.02154 5.585074 14.878253 4.8128265 14.681641 4.7089844 C 14.678441 4.7073444 14.666292 4.6938864 14.664062 4.6933594 L 14.662109 4.6972656 C 14.654909 4.6936756 14.604833 4.657077 14.601562 4.65625 L 14.601562 4.6582031 C 14.598963 4.6573481 14.596303 4.65647 14.595703 4.65625 C 14.584113 4.66694 14.674989 4.8640564 14.771484 5.0351562 C 15.759853 6.7880674 16.408292 9.4198741 16.078125 10.892578 C 16.072625 10.915458 16.068887 10.937308 16.060547 10.960938 C 16.060126 10.962138 16.058894 10.965897 16.058594 10.966797 C 16.057794 10.966547 16.055288 10.966997 16.054688 10.966797 C 16.046988 10.969697 16.025435 10.971809 16.015625 10.974609 C 15.74588 10.625821 15.509139 10.327169 15.179688 9.8925781 C 13.156251 7.2729891 9.4624644 3.4261431 5.6464844 2.2148438 C 5.1786964 2.0810004 4.7699899 2.0091088 4.4082031 2.0019531 z" style="fill:#ffffff"/>
</svg>
